X: 10827
T: Dream Angus
R: waltz
M: 3/4
K: Gmajor
D3 E G2|B4 A2|G4 E2|D6|B3 A B2|d3 d d2|B2 A2 G2|G6|
B3 A B2|d4 c2|B3 A G2|A2 HB2 B,2|D3 E D2|E4 A2|G4 E2|D6||
D4 E2|A4 G2|E4 D2|D6|B3 A B2|d4 d2|B3 A G2|G6|
B2 A2 B2|d4 c2|B2 A2 G2|A2 HB2 B,2|D3 E D2|E4 A2|G4 E2|D6||

